X:1
T:Title
%%score { ( 1 4 ) | ( 2 3 ) }
L:1/8
Q:1/4=105
M:6/8
K:Eb
V:1 treble nm="Grand Piano"
V:4 treble 
V:2 bass 
V:3 bass 
V:1
 [Ec]2 [D=B] [Ec]2 [E_B] | [FA]2 [=EG] [FA]2 [_DF] | [CE]2 [=B,D] [CE]2 [Ec] | [EB]6 | %4
w: J.~H.~Tenney * * *||||
 [Ec]2 [D=B] [Ec]2 [E_B] | [FA]2 [=EG] [FA]2 F | E2 A A2 G | [CA]6 | [GB]2 [GB] [GB]2 [GB] | %9
w: |||||
 [GB]3 [Ge]3 | [Fd]2 [Ac] [GB]2 [FA] | G3 .B3 | [GB]2 [GB] [GB]2 [GB] | [GB]3 [Ge]3 | %14
w: |||||
 [Fd]cB [FA]G[A,DF] |[M:7/8] E3- [E_d]2- [Ed-]/d/ z |[M:3/4] [Ec]2 [D=B] [Ec]2 [E_B] | %17
w: |||
 [FA]2 [=EG] [FA]2 [_DF] | [CE]2 [=B,D] [CE]2 [Ec] | [EB]6 | [Ec]2 [D=B] [Ec]2 [E_B] | %21
w: ||||
 [FA]2 [=EG] [FA]2 F | E2 A A2 G |[M:7/4] [CA]6 z2 z2 z4 |] %24
w: |||
V:2
 [A,,A,]2 [A,,A,] [A,,A,]2 [A,,A,] | [_D,A,]2 [D,A,] [D,A,]2 [D,A,] | %2
 [A,,A,]2 [A,,A,] [A,,A,]2 [A,,A,] | [E,G,]6 | [A,,A,]2 [A,,A,] [A,,A,]2 [C,A,] | %5
 [_D,A,]2 [D,A,] [D,A,]2 [D,A,_D] | [E,A,C]2 [E,A,C] [E,CE]2 [E,B,_D] | [A,,A,]6 | %8
 [E,E]2 [E,E] [E,E]2 [E,E] | [E,E]3 [E,B,]3 | [B,,B,]2 [B,,B,] [B,,B,]2 [B,,B,] | [B,E]3 z3 | %12
 [E,E]2 [E,E] [E,E]2 [E,E] | [E,E]3 [E,B,]3 | z[K:treble] A[B,G][K:bass] z EB,, | %15
[M:7/8] z z2 B,3 z |[M:3/4] [A,,A,]2 [A,,A,] [A,,A,]2 [A,,A,] | [_D,A,]2 [D,A,] [D,A,]2 [D,A,] | %18
 [A,,A,]2 [A,,A,] [A,,A,]2 [A,,A,] | [E,G,]6 | [A,,A,]2 [A,,A,] [A,,A,]2 [C,A,] | %21
 [_D,A,]2 [D,A,] [D,A,]2 [D,A,_D] | [E,A,C]2 [E,A,C] [E,CE]2 [E,B,_D] |[M:7/4] [A,,A,]6 z2 z2 z4 |] %24
V:3
 x6 | x6 | x6 | x6 | x6 | x6 | x6 | x6 | x6 | x6 | x6 | E,3- [E,EG]3 | x6 | x6 | %14
 .B,3[K:treble][K:bass] .[B,,B,]3 |[M:7/8] E,-E,-E,- E,3 z |[M:3/4] x6 | x6 | x6 | x6 | x6 | x6 | %22
 x6 |[M:7/4] x14 |] %24
V:4
 x6 | x6 | x6 | x6 | x6 | x6 | x6 | x6 | x6 | x6 | x6 | x6 | x6 | x6 | x6 |[M:7/8] G,3 z z z2 | %16
[M:3/4] x6 | x6 | x6 | x6 | x6 | x6 | x6 |[M:7/4] x14 |] %24

